CM2T1/251/aimg/nina.svg

<svg clip-rule="evenodd" fill-rule="evenodd" stroke-linecap="round" stroke-linejoin="round" viewBox="0 0 200 200" xmlns="http://www.w3.org/2000/svg"><g stroke="#000" stroke-linecap="butt" stroke-linejoin="round"><path d="m86.2739 31.0075c27.0461-22.33704 28.1861-10.1662 29.1541-5.8819.348 1.5357.158 3.423 1.135 4.7942.747 1.0479 1.569 2.2846 2.406 3.1644.592.622 2.436.0802 2.652 1.304.232 1.3102-1.139 2.1115-1.916 2.8592-1.013.9755-2.487 2.5944-2.766 4.0839-.293 1.5619-7.481 1.0239-9.809 5.6177-1.534 3.0282-6.42 10.5705-6.42 10.5705" fill="#ffbe89"/><path d="m148.24 132.899c.114-.228.149-1.002.149-.748 0 3.334-.598 6.655-.598 10.023 0 4.177.536 8.665 1.347 12.717.151.757.345 2.803-.599 2.992-2.132.427-4.41.463-6.583.898-.573.114-2.521 1.015-2.992.897-.216-.054-.149-.696-.149-.748 0-1.833-.121-3.433-.449-5.236-.689-3.788-.429-7.657-1.047-11.37-.287-1.718-1.511-3.861-.599-5.685" fill="#ffbe89"/><g><path d="m116.554 79.8631c-.206-.1961-.458-.3423-.651-.5516-.151-.1642.417.1777.585.3242.4.3484.793.7066 1.152 1.097.831.9043 1.476 2.0031 2.271 2.9412 2.052 2.4209 4.26 4.6525 6.286 7.1541 1.826 2.2545 3.04 4.2907 4.505 6.7792.671 1.1399 1.799 1.8815 2.57 2.9538 1.98 2.751 3.937 5.536 6.105 7.895.516.562 1.384 2.863 1.193 3.644-.124.509-1.279 1.579-.836 2.061 1.522 1.657 3.546-.194 4.84-1.142 1.83-1.342 3.639-4.267 3.274-6.6-.164-1.052-1.815-1.165-2.315-1.895-1.321-1.926-3.054-3.448-4.412-5.4277-2.647-3.8586-4.866-7.9049-7.435-11.8446-.487-.7457-1.246-1.2523-1.712-2.0191-1.036-1.7069-1.733-3.6062-3.079-5.0718-2.083-2.2668-3.458-5.171-5.526-7.4214-.311-.3378-.986-1.9883-1.413-2.0064-2.074-.0878-4.463 2.5898-5.993 3.6396-.503.3445-2.28.7875-2.312 1.5493-.045 1.0515 1.434 2.5802 2.109 3.2338.28.2708.602.4985.865.7853.143.1558.573.6232.43.4674-.167-.1818-.323-.375-.501-.5453z" fill="#ffbe89"/><path d="m107.6 75.2368c-.151-.0836-1.027-.4918-1.021-.6422.003-.0602 1.769 1.579 1.874 1.7264.681.9575 1.112 2.1851 1.661 3.2149.084.1587 1.825 3.9059 2.083 3.8317 1.555-.4462 5.183-4.651 6.388-5.869 1.723-1.7408 3.832-2.4239 5.845-3.6459.486-.2956 3.529-4.0035 3.939-4.6249 1.121-1.7008-.791-2.5188-1.947-3.5265-2.537-2.2119-6.405-2.3131-8.305-5.4426" fill="#ffc0ff"/><path d="m111.782 75.5645c3.294.4063-1.3 2.9594-3.62 2.3924-2.707-.6617-4.149-2.7818-5.322-5.1667-2.569-5.2245-2.8703-18.2959 4.865-19.4101 5.772-.8313 14.604 4.8779 12.991 11.4809-.208.8483-1.462 1.382-2.032 2.0104-1.797 1.9802-3.679 3.6675-5.621 5.4522-1.285 1.1801-3.786 2.9295-1.261 3.2409z" fill="#fbf"/></g><path d="m85.7045 153.694c-.2934-.587-1.22.783-1.4961 1.197-1.7381 2.607-2.4484 5.291-4.7874 7.63-3.4473 3.447-6.7472 7.169-9.874 10.921-.172.207-2.089 2.848-1.9449 2.992.1058.106.3099.056.4488 0 1.531-.612 3.8399-.04 5.5354.299 1.2586.252 3.9315 1.121 5.2363.599 1.8339-.734 4.7816-7.258 5.9842-8.976 1.5472-2.211 2.8433-4.49 4.3386-6.733.873-1.309 2.0709-2.351 2.8425-3.74 1.7007-3.061 3.0863-6.378 5.5355-8.827" fill="#ffbe89"/><path d="m139.488 160.052c.141-.836 2.019-1.121 2.768-1.421 2.324-.93 5.035-.825 7.48-1.047 3.971-.361 10.449-1.116 13.764 1.646 1.783 1.486 3.242 4.753 1.645 6.881-1.124 1.5-4.062 1.496-5.685 1.496-4.771 0-9.544-.679-14.212-1.346-1.105-.158-5.043.538-5.685-.748-.683-1.366-.356-3.797-.075-5.461z" fill="#3f8bac"/><path d="m140.122 158.47c-1.261 2.521 6.384 4.137 7.779 1.346.311-.621-.914-2.576-1.197-3.141" fill="#ffbe89"/><path d="m68.3501 176.584c-.3795 1.518-1.5837 2.827-1.3464 4.488.8775 6.143 12.8474 5.236 17.0551 5.236 1.5347 0 8.8648-2.135 9.126-3.441.843-4.215-6.2447-5.039-8.8268-5.685-1.9297-.482-4.295-.149-6.2835-.149" fill="#3f8bac"/><path d="m69.8026 175.101c-1.0946-.386-1.847 3.91-.8541 4.61.7751.547 2.5258.875 3.5906.951 4.0784.287 5.3985-2.132 5.3985-4.361" fill="#ffbe89"/><path d="m93.3344 95.9461c1.2102-3.6306.5984-8.0379.5984-11.8189 0-3.367.3707-6.9865 0-10.3229-.2449-2.2045.2185-4.6733-.1496-6.8818-.064-.384-.4652-.7819-.2992-1.1969.333-.8325 3.5049-1.1564 4.189-1.3465 3.212-.8921 6.491-1.4356 9.724-2.244 2.108-.5269 4.412-.6874 6.433-1.4961.465-.1859 1.551-1.0337 2.095-.8976.47.1175.022 2.1487 0 2.3937-.18 1.9841-.299 3.9841-.299 5.9842 0 5.6934-.484 11.5082.149 17.2047.318 2.8552-.426 6.0293.898 8.6772" fill="#ffd0ff"/><path d="m102.311 93.2532c2.797 1.3988 7.068.2955 10.023 0 .403-.0403 2.47-.497 2.843 0 .095.1261-.091.3024-.15.4488-.597 1.4941-.748 2.8821-.748 4.4882 0 .6588 1.195 3.5918.748 4.0398-.105.105-.301.024-.449 0-2.485-.415-4.983-.931-7.48-1.347-1.887-.314-4.542-.473-6.433 0-.9628.241-1.6224 1.047-2.5432 1.047-.0479 0-3.4337-4.4133-3.5906-4.6375-.2728-.3897-2.3937-2.0603-2.3937-2.3937 0-.2961 2.9378-.1326 3.1418-.1496 1.4878-.124 2.8974-.3877 4.3385-.748 2.1102-.5274 4.1242-.5984 6.2832-.5984" fill="#ffc9ff"/><path d="m114.279 102.978c3.133 0 5.531 1.112 8.528 1.944 5.311 1.476 10.803 2.552 16.157 3.89 1.814.454 7.768 1.631 8.977 3.142 1.092 1.366 1.685 7.692 1.945 9.425.14.936 1.53 7.424 1.047 8.228-.736 1.227-2.745 1.989-3.89 2.693-4.295 2.644-8.947 2.811-13.465 4.788-14.155 6.193-28.804 11.203-43.8342 14.96-5.2876 1.322-16.3068 3.94-21.8425 2.095-1.269-.423-1.3746-2.524-1.1968-3.591.5354-3.212 2.7758-6.685 4.4881-9.425 2.2608-3.617 3.3697-7.302 4.9371-11.22 1.0486-2.622 2.7215-4.991 4.0393-7.481.9234-1.744 1.5134-3.625 2.3937-5.385 1.4679-2.936 3.4485-5.398 5.2362-8.079 1.0618-1.593 7.0207-8.182 9.126-7.48" fill="#b6ffff"/><g><path d="m86.6981 68.206c.1872-.2139.3226-.4722.5236-.6732.1577-.1577-.1599.4243-.2992.5984-.3312.414-.6724.822-1.0472 1.1969-.8684.8683-1.939 1.5596-2.8426 2.3937-2.3319 2.1525-4.4682 4.453-6.8819 6.5826-2.1753 1.9194-4.1583 3.2187-6.5826 4.7874-1.1105.7186-1.8038 1.8768-2.8426 2.6929-2.6651 2.0941-5.3647 4.1679-7.6299 6.4331-.5391.5391-2.8019 1.5042-3.5905 1.3465-.5138-.1028-1.631-1.2116-2.0945-.7481-1.5904 1.5904.3438 3.5342 1.3464 4.7874 1.4175 1.7718 4.4163 3.4554 6.7323 2.9924 1.044-.209 1.0873-1.863 1.7953-2.3939 1.8682-1.4012 3.3153-3.1972 5.2362-4.6378 3.7433-2.8075 7.6922-5.1952 11.5197-7.9292.7244-.5174 1.1985-1.2976 1.9449-1.7952 1.6616-1.1078 3.5297-1.8841 4.937-3.2914 2.1768-2.1768 5.0202-3.6737 7.1811-5.8346.3244-.3245 1.9449-1.0693 1.9449-1.4961 0-2.0759-2.7762-4.3499-3.8898-5.8346-.3654-.4873-.8832-2.2441-1.6457-2.2441-1.0524 0-2.5173 1.5416-3.1417 2.2441-.2587.2911-.4726.6222-.748.8976-.1496.1496-.5984.5984-.4488.4488.1745-.1745.361-.3378.5236-.5236z" fill="#ffbe89"/><path d="m90.9417 59.0648c.0771-.1543.4479-1.0472.5984-1.0472.0603 0-1.5028 1.8337-1.6457 1.9449-.9278.7216-2.136 1.2036-3.1417 1.7952-.155.0912-3.8252 1.989-3.7402 2.2441.5116 1.5347 4.866 4.9813 6.1339 6.1339 1.8121 1.6473 2.5837 3.726 3.8898 5.685.3159.4739 4.1492 3.3573 4.7874 3.7402 1.7466 1.048 2.4834-.8971 3.4404-2.0945 2.103-2.6284 2.041-6.4967 5.087-8.5276" fill="#ffc0ff"/><path d="m90.7911 63.2571c-.2666 3.3078-3.0117-1.1739-2.5433-3.5157.5465-2.733 2.6038-4.2628 4.937-5.5355 5.1112-2.7879 18.1582-3.6418 19.5982 4.0394 1.075 5.7318-4.256 14.7976-10.921 13.4646-.856-.1713-1.443-1.4017-2.0946-1.9449-2.0544-1.7121-3.8197-3.5206-5.685-5.3859-1.2334-1.2333-3.0869-3.6579-3.2913-1.122z" fill="#fbf"/></g><path d="m106.673 12.0335c.871-2.70828-5.177-1.1408-6.446-1.0943-5.3307.1951-10.2384 1.0616-14.6812 4.8316-.3682.3124-4.0338 2.6127-3.7146 4.4069.2432 1.3665 3.9548 2.6149 3.2582 3.8638-2.2678 4.066-7.0538 5.1044-9.1504 9.6469-1.6491 3.5727 1.1916 4.9293.4086 6.8932-1.0706 2.6851-5.3041 4.4922-7.0194 6.5194-2.6868 3.1753-.2203 4.3191-.9658 6.0644-.8773 2.0538-3.4805 3.8824-3.7232 6.3287-.0933.9407.5945 1.5686.288 2.6034-.3472 1.1719-1.5947 2.8471-.577 3.9808 2.0487 2.2823 7.3136 1.1783 9.9221.9282.6232-.0597 1.2514-1.1464 1.7841-1.4656 2.6084-1.5629 5.2755-3.2776 7.9299-4.6856 6.4791-3.4367 6.5292-5.3269 13.1778-8.155 2.0451-.87 8.3279-5.202 9.1739-7.8319 1.324-4.1175 5.636-4.6705 5.801-9.0121.408-10.7148 3.876-21.0611-6.556-25.6811-1.662-.73603-2.746-.87934-4.491-.61355" fill="#af5300"/></g></svg>

<?xml version="1.0" encoding="UTF-8" standalone="no"?> <!-- Created with Vectornator for iOS (http://vectornator.io/) --><!DOCTYPE svg PUBLIC "-//W3C//DTD SVG 1.1//EN" "http://www.w3.org/Graphics/SVG/1.1/DTD/svg11.dtd">
<svg style="fill-rule:evenodd;clip-rule:evenodd;stroke-linecap:round;stroke-linejoin:round;" xmlns:vectornator="http://vectornator.io" xmlns:xlink="http://www.w3.org/1999/xlink" xmlns="http://www.w3.org/2000/svg" xml:space="preserve" version="1.1" viewBox="0 0 200 200">
<metadata>
<vectornator:setting key="DisplayWhiteBackground" value="0"/>
<vectornator:setting key="RulersVisible" value="1"/>
<vectornator:setting key="GridSpacing" value="36"/>
<vectornator:setting key="Units" value="Pixels"/>
<vectornator:setting key="New" value="1"/>
<vectornator:setting key="DynamicGuides" value="0"/>
<vectornator:setting key="SnapToPoints" value="0"/>
<vectornator:setting key="CMYKEnabledKey" value="0"/>
<vectornator:setting key="SnapToGrid" value="0"/>
<vectornator:setting key="SnapToGuides" value="1"/>
<vectornator:setting key="SnapToEdges" value="0"/>
</metadata>
<defs/>
<g id="Layer 3" vectornator:layerName="Layer 3">
<g opacity="1">
<path stroke="#000000" stroke-width="1" d="M86.2739+31.0075C113.32+8.67046+114.46+20.8413+115.428+25.1256C115.776+26.6613+115.586+28.5486+116.563+29.9198C117.31+30.9677+118.132+32.2044+118.969+33.0842C119.561+33.7062+121.405+33.1644+121.621+34.3882C121.853+35.6984+120.482+36.4997+119.705+37.2474C118.692+38.2229+117.218+39.8418+116.939+41.3313C116.646+42.8932+109.458+42.3552+107.13+46.949C105.596+49.9772+100.71+57.5195+100.71+57.5195" fill="#ffbe89" stroke-linecap="butt" opacity="1" stroke-linejoin="round"/>
<path stroke="#000000" stroke-width="1" d="M148.24+132.899C148.354+132.671+148.389+131.897+148.389+132.151C148.389+135.485+147.791+138.806+147.791+142.174C147.791+146.351+148.327+150.839+149.138+154.891C149.289+155.648+149.483+157.694+148.539+157.883C146.407+158.31+144.129+158.346+141.956+158.781C141.383+158.895+139.435+159.796+138.964+159.678C138.748+159.624+138.815+158.982+138.815+158.93C138.815+157.097+138.694+155.497+138.366+153.694C137.677+149.906+137.937+146.037+137.319+142.324C137.032+140.606+135.808+138.463+136.72+136.639" fill="#ffbe89" stroke-linecap="butt" opacity="1" stroke-linejoin="round"/>
<g opacity="1">
<path stroke="#000000" stroke-width="1" d="M116.554+79.8631C116.348+79.667+116.096+79.5208+115.903+79.3115C115.752+79.1473+116.32+79.4892+116.488+79.6357C116.888+79.9841+117.281+80.3423+117.64+80.7327C118.471+81.637+119.116+82.7358+119.911+83.6739C121.963+86.0948+124.171+88.3264+126.197+90.828C128.023+93.0825+129.237+95.1187+130.702+97.6072C131.373+98.7471+132.501+99.4887+133.272+100.561C135.252+103.312+137.209+106.097+139.377+108.456C139.893+109.018+140.761+111.319+140.57+112.1C140.446+112.609+139.291+113.679+139.734+114.161C141.256+115.818+143.28+113.967+144.574+113.019C146.404+111.677+148.213+108.752+147.848+106.419C147.684+105.367+146.033+105.254+145.533+104.524C144.212+102.598+142.479+101.076+141.121+99.0963C138.474+95.2377+136.255+91.1914+133.686+87.2517C133.199+86.506+132.44+85.9994+131.974+85.2326C130.938+83.5257+130.241+81.6264+128.895+80.1608C126.812+77.894+125.437+74.9898+123.369+72.7394C123.058+72.4016+122.383+70.7511+121.956+70.733C119.882+70.6452+117.493+73.3228+115.963+74.3726C115.46+74.7171+113.683+75.1601+113.651+75.9219C113.606+76.9734+115.085+78.5021+115.76+79.1557C116.04+79.4265+116.362+79.6542+116.625+79.941C116.768+80.0968+117.198+80.5642+117.055+80.4084C116.888+80.2266+116.732+80.0334+116.554+79.8631Z" fill="#ffbe89" stroke-linecap="butt" opacity="1" stroke-linejoin="round"/>
<path stroke="#000000" stroke-width="1" d="M107.6+75.2368C107.449+75.1532+106.573+74.745+106.579+74.5946C106.582+74.5344+108.348+76.1736+108.453+76.321C109.134+77.2785+109.565+78.5061+110.114+79.5359C110.198+79.6946+111.939+83.4418+112.197+83.3676C113.752+82.9214+117.38+78.7166+118.585+77.4986C120.308+75.7578+122.417+75.0747+124.43+73.8527C124.916+73.5571+127.959+69.8492+128.369+69.2278C129.49+67.527+127.578+66.709+126.422+65.7013C123.885+63.4894+120.017+63.3882+118.117+60.2587" fill="#ffc0ff" stroke-linecap="butt" opacity="1" stroke-linejoin="round"/>
<path stroke="#000000" stroke-width="1" d="M111.782+75.5645C115.076+75.9708+110.482+78.5239+108.162+77.9569C105.455+77.2952+104.013+75.1751+102.84+72.7902C100.271+67.5657+99.9697+54.4943+107.705+53.3801C113.477+52.5488+122.309+58.258+120.696+64.861C120.488+65.7093+119.234+66.243+118.664+66.8714C116.867+68.8516+114.985+70.5389+113.043+72.3236C111.758+73.5037+109.257+75.2531+111.782+75.5645Z" fill="#ffbbff" stroke-linecap="butt" opacity="1" stroke-linejoin="round"/>
</g>
<path stroke="#000000" stroke-width="1" d="M85.7045+153.694C85.4111+153.107+84.4845+154.477+84.2084+154.891C82.4703+157.498+81.76+160.182+79.421+162.521C75.9737+165.968+72.6738+169.69+69.547+173.442C69.375+173.649+67.458+176.29+67.6021+176.434C67.7079+176.54+67.912+176.49+68.0509+176.434C69.5819+175.822+71.8908+176.394+73.5863+176.733C74.8449+176.985+77.5178+177.854+78.8226+177.332C80.6565+176.598+83.6042+170.074+84.8068+168.356C86.354+166.145+87.6501+163.866+89.1454+161.623C90.0184+160.314+91.2163+159.272+91.9879+157.883C93.6886+154.822+95.0742+151.505+97.5234+149.056" fill="#ffbe89" stroke-linecap="butt" opacity="1" stroke-linejoin="round"/>
<path stroke="#000000" stroke-width="1" d="M139.488+160.052C139.629+159.216+141.507+158.931+142.256+158.631C144.58+157.701+147.291+157.806+149.736+157.584C153.707+157.223+160.185+156.468+163.5+159.23C165.283+160.716+166.742+163.983+165.145+166.111C164.021+167.611+161.083+167.607+159.46+167.607C154.689+167.607+149.916+166.928+145.248+166.261C144.143+166.103+140.205+166.799+139.563+165.513C138.88+164.147+139.207+161.716+139.488+160.052Z" fill="#3f8bac" stroke-linecap="butt" opacity="1" stroke-linejoin="round"/>
<path stroke="#000000" stroke-width="1" d="M140.122+158.47C138.861+160.991+146.506+162.607+147.901+159.816C148.212+159.195+146.987+157.24+146.704+156.675" fill="#ffbe89" stroke-linecap="butt" opacity="1" stroke-linejoin="round"/>
<path stroke="#000000" stroke-width="1" d="M68.3501+176.584C67.9706+178.102+66.7664+179.411+67.0037+181.072C67.8812+187.215+79.8511+186.308+84.0588+186.308C85.5935+186.308+92.9236+184.173+93.1848+182.867C94.0278+178.652+86.9401+177.828+84.358+177.182C82.4283+176.7+80.063+177.033+78.0745+177.033" fill="#3f8bac" stroke-linecap="butt" opacity="1" stroke-linejoin="round"/>
<path stroke="#000000" stroke-width="1" d="M69.8026+175.101C68.708+174.715+67.9556+179.011+68.9485+179.711C69.7236+180.258+71.4743+180.586+72.5391+180.662C76.6175+180.949+77.9376+178.53+77.9376+176.301" fill="#ffbe89" stroke-linecap="butt" opacity="1" stroke-linejoin="round"/>
<path stroke="#000000" stroke-width="1" d="M93.3344+95.9461C94.5446+92.3155+93.9328+87.9082+93.9328+84.1272C93.9328+80.7602+94.3035+77.1407+93.9328+73.8043C93.6879+71.5998+94.1513+69.131+93.7832+66.9225C93.7192+66.5385+93.318+66.1406+93.484+65.7256C93.817+64.8931+96.9889+64.5692+97.673+64.3791C100.885+63.487+104.164+62.9435+107.397+62.1351C109.505+61.6082+111.809+61.4477+113.83+60.639C114.295+60.4531+115.381+59.6053+115.925+59.7414C116.395+59.8589+115.947+61.8901+115.925+62.1351C115.745+64.1192+115.626+66.1192+115.626+68.1193C115.626+73.8127+115.142+79.6275+115.775+85.324C116.093+88.1792+115.349+91.3533+116.673+94.0012" fill="#ffd0ff" stroke-linecap="butt" opacity="1" stroke-linejoin="round"/>
<path stroke="#000000" stroke-width="1" d="M102.311+93.2532C105.108+94.652+109.379+93.5487+112.334+93.2532C112.737+93.2129+114.804+92.7562+115.177+93.2532C115.272+93.3793+115.086+93.5556+115.027+93.702C114.43+95.1961+114.279+96.5841+114.279+98.1902C114.279+98.849+115.474+101.782+115.027+102.23C114.922+102.335+114.726+102.254+114.578+102.23C112.093+101.815+109.595+101.299+107.098+100.883C105.211+100.569+102.556+100.41+100.665+100.883C99.7022+101.124+99.0426+101.93+98.1218+101.93C98.0739+101.93+94.6881+97.5167+94.5312+97.2925C94.2584+96.9028+92.1375+95.2322+92.1375+94.8988C92.1375+94.6027+95.0753+94.7662+95.2793+94.7492C96.7671+94.6252+98.1767+94.3615+99.6178+94.0012C101.728+93.4738+103.742+93.4028+105.901+93.4028" fill="#ffc9ff" stroke-linecap="butt" opacity="1" stroke-linejoin="round"/>
<path stroke="#000000" stroke-width="1" d="M114.279+102.978C117.412+102.978+119.81+104.09+122.807+104.922C128.118+106.398+133.61+107.474+138.964+108.812C140.778+109.266+146.732+110.443+147.941+111.954C149.033+113.32+149.626+119.646+149.886+121.379C150.026+122.315+151.416+128.803+150.933+129.607C150.197+130.834+148.188+131.596+147.043+132.3C142.748+134.944+138.096+135.111+133.578+137.088C119.423+143.281+104.774+148.291+89.7438+152.048C84.4562+153.37+73.437+155.988+67.9013+154.143C66.6323+153.72+66.5267+151.619+66.7045+150.552C67.2399+147.34+69.4803+143.867+71.1926+141.127C73.4534+137.51+74.5623+133.825+76.1297+129.907C77.1783+127.285+78.8512+124.916+80.169+122.426C81.0924+120.682+81.6824+118.801+82.5627+117.041C84.0306+114.105+86.0112+111.643+87.7989+108.962C88.8607+107.369+94.8196+100.78+96.9249+101.482" fill="#b6ffff" stroke-linecap="butt" opacity="1" stroke-linejoin="round"/>
<g opacity="1">
<path stroke="#000000" stroke-width="1" d="M86.6981+68.206C86.8853+67.9921+87.0207+67.7338+87.2217+67.5328C87.3794+67.3751+87.0618+67.9571+86.9225+68.1312C86.5913+68.5452+86.2501+68.9532+85.8753+69.3281C85.0069+70.1964+83.9363+70.8877+83.0327+71.7218C80.7008+73.8743+78.5645+76.1748+76.1508+78.3044C73.9755+80.2238+71.9925+81.5231+69.5682+83.0918C68.4577+83.8104+67.7644+84.9686+66.7256+85.7847C64.0605+87.8788+61.3609+89.9526+59.0957+92.2178C58.5566+92.7569+56.2938+93.722+55.5052+93.5643C54.9914+93.4615+53.8742+92.3527+53.4107+92.8162C51.8203+94.4066+53.7545+96.3504+54.7571+97.6036C56.1746+99.3754+59.1734+101.059+61.4894+100.596C62.5334+100.387+62.5767+98.733+63.2847+98.2021C65.1529+96.8009+66.6+95.0049+68.5209+93.5643C72.2642+90.7568+76.2131+88.3691+80.0406+85.6351C80.765+85.1177+81.2391+84.3375+81.9855+83.8399C83.6471+82.7321+85.5152+81.9558+86.9225+80.5485C89.0993+78.3717+91.9427+76.8748+94.1036+74.7139C94.428+74.3894+96.0485+73.6446+96.0485+73.2178C96.0485+71.1419+93.2723+68.8679+92.1587+67.3832C91.7933+66.8959+91.2755+65.1391+90.513+65.1391C89.4606+65.1391+87.9957+66.6807+87.3713+67.3832C87.1126+67.6743+86.8987+68.0054+86.6233+68.2808C86.4737+68.4304+86.0249+68.8792+86.1745+68.7296C86.349+68.5551+86.5355+68.3918+86.6981+68.206Z" fill="#ffbe89" stroke-linecap="butt" opacity="1" stroke-linejoin="round"/>
<path stroke="#000000" stroke-width="1" d="M90.9417+59.0648C91.0188+58.9105+91.3896+58.0176+91.5401+58.0176C91.6004+58.0176+90.0373+59.8513+89.8944+59.9625C88.9666+60.6841+87.7584+61.1661+86.7527+61.7577C86.5977+61.8489+82.9275+63.7467+83.0125+64.0018C83.5241+65.5365+87.8785+68.9831+89.1464+70.1357C90.9585+71.783+91.7301+73.8617+93.0362+75.8207C93.3521+76.2946+97.1854+79.178+97.8236+79.5609C99.5702+80.6089+100.307+78.6638+101.264+77.4664C103.367+74.838+103.305+70.9697+106.351+68.9388" fill="#ffc0ff" stroke-linecap="butt" opacity="1" stroke-linejoin="round"/>
<path stroke="#000000" stroke-width="1" d="M90.7911+63.2571C90.5245+66.5649+87.7794+62.0832+88.2478+59.7414C88.7943+57.0084+90.8516+55.4786+93.1848+54.2059C98.296+51.418+111.343+50.5641+112.783+58.2453C113.858+63.9771+108.527+73.0429+101.862+71.7099C101.006+71.5386+100.419+70.3082+99.7674+69.765C97.713+68.0529+95.9477+66.2444+94.0824+64.3791C92.849+63.1458+90.9955+60.7212+90.7911+63.2571Z" fill="#ffbbff" stroke-linecap="butt" opacity="1" stroke-linejoin="round"/>
</g>
<path stroke="#000000" stroke-width="1" d="M106.673+12.0335C107.544+9.32522+101.496+10.8927+100.227+10.9392C94.8963+11.1343+89.9886+12.0008+85.5458+15.7708C85.1776+16.0832+81.512+18.3835+81.8312+20.1777C82.0744+21.5442+85.786+22.7926+85.0894+24.0415C82.8216+28.1075+78.0356+29.1459+75.939+33.6884C74.2899+37.2611+77.1306+38.6177+76.3476+40.5816C75.277+43.2667+71.0435+45.0738+69.3282+47.101C66.6414+50.2763+69.1079+51.4201+68.3624+53.1654C67.4851+55.2192+64.8819+57.0478+64.6392+59.4941C64.5459+60.4348+65.2337+61.0627+64.9272+62.0975C64.58+63.2694+63.3325+64.9446+64.3502+66.0783C66.3989+68.3606+71.6638+67.2566+74.2723+67.0065C74.8955+66.9468+75.5237+65.8601+76.0564+65.5409C78.6648+63.978+81.3319+62.2633+83.9863+60.8553C90.4654+57.4186+90.5155+55.5284+97.1641+52.7003C99.2092+51.8303+105.492+47.4983+106.338+44.8684C107.662+40.7509+111.974+40.1979+112.139+35.8563C112.547+25.1415+116.015+14.7952+105.583+10.1752C103.921+9.43917+102.837+9.29586+101.092+9.56165" fill="#af5300" stroke-linecap="butt" opacity="1" stroke-linejoin="round"/>
</g>
</g>
</svg>
